X:1
T:Title
%%score { ( 1 3 ) | ( 2 4 ) }
L:1/8
M:4/4
K:Eb
V:1 treble nm="Grand Piano"
V:3 treble 
V:2 bass 
V:4 bass 
V:1
 z4 z2 z[Q:1/4=92] B | [Be][GB][GB][Ac] [GB]2 GF | EFGA B3 [Be] | [Bd][Bd][FA][Ad] [Gc][Gc]GG | %4
 [FB]F[=Ac][Ae] [Bd]3 B | [Be][GB][GB][Ac] [GB]2 GF | EFGA B3 B | %7
 [F=A][FB][Ac][ce] [Bd] [Bf]2 [Be] |[M:7/8] z z z2 B3 |[M:1/8] B | %10
[M:4/4] [Be]>[Bd] [Be]>[Bd] [Be]3 B | [Ac][ce][Bd][Ac] B3 G | EFGA B [Be]2 [Be] | %13
[M:7/8] [cf]<[cf][Bd]>[Bd] [Be]3 |] %14
V:2
 z4 z2 z [E,G,] | [E,G,]E,E,E, E,2 G,F, | E,F,G,A, B,3 [E,G,] | %3
 [F,A,][F,A,][B,,D,][B,,F,] E,E,E,E, | [D,F,][D,B,][C,F,][C,F,] [B,,F,]3 [F,A,] | %5
 [E,G,]E,E,E, E,2 G,F, | E,F,G,A, B,3 [E,G,] | [E,F,][D,F,][C,F,][=A,,F,] [B,,F,] [D,B,]2 [E,G,] | %8
[M:7/8] F,>F,[E,F,] [E,F,]B, z2 |[M:1/8] B, |[M:4/4] [E,G,]>[B,,F,] [E,G,]>[B,,F,] [E,G,]3 [E,G,] | %11
 [A,,E,][A,,A,][A,,A,][A,,A,] [E,G,]3 G, | E,F,G,A, B, [E,G,]2 [E,G,] | %13
[M:7/8] [A,,A,]<[A,,A,][B,,A,]>[B,,A,] [E,G,]3 |] %14
V:3
 x8 | x8 | x8 | x8 | x8 | x8 | x8 | x8 |[M:7/8] [Bd]>[Bd][=Ac] [Ac] z A,G, |[M:1/8] x |[M:4/4] x8 | %11
 x8 | x8 |[M:7/8] x7 |] %14
V:4
 x8 | x8 | x8 | x8 | x8 | x8 | x8 | x8 |[M:7/8] z z z2 [B,,D,]3 |[M:1/8] x |[M:4/4] x8 | x8 | x8 | %13
[M:7/8] x7 |] %14

